src/people-body/person-gesture/1F646.svg

<svg id="emoji" xmlns="http://www.w3.org/2000/svg" viewBox="0 0 72 72">
  <title>1F646</title>
  <g id="grid">
    <path d="M68,4V68H4V4H68m4-4H0V72H72V0Z" fill="#b3b3b3"/>
    <path d="M12.923,10.9583H59.0769A1.9231,1.9231,0,0,1,61,12.8814V59.0352a1.9231,1.9231,0,0,1-1.9231,1.9231H12.9231A1.9231,1.9231,0,0,1,11,59.0352V12.8813A1.923,1.923,0,0,1,12.923,10.9583Z" fill="none" stroke="#00a5ff" stroke-miterlimit="10" stroke-width="0.1"/>
    <rect x="16" y="4" width="40" height="64" rx="2.2537" fill="none" stroke="#00a5ff" stroke-miterlimit="10" stroke-width="0.1"/>
    <rect x="16" y="4" width="40" height="64" rx="2.2537" transform="translate(72) rotate(90)" fill="none" stroke="#00a5ff" stroke-miterlimit="10" stroke-width="0.1"/>
    <circle cx="36" cy="36" r="29" fill="none" stroke="#00a5ff" stroke-miterlimit="10" stroke-width="0.1"/>
  </g>
  <g id="color">
    <path d="M56.4921,60.9261l4-17-10.9375-4.375-.1543-.624c-2.4082,3.0312-2.7539,1.3447-4.334,2.3974-6.6572,8.6026-13.8242,6.1338-19.0742.05-1.8174-1.3633-1.6562.584-2.5039-1.4482h-.9961l-10,3,4,18" fill="#92d3f5"/>
  </g>
  <g id="skin">
    <path d="M24.9286,32.9583c0,9,4.9365,14,11,14,5.9365,0,11.0635-5,11.0635-14a12.1371,12.1371,0,0,0-1-5.0005c-3-2.9995-7-8-7-8-4,3-7,6-13,7.0005C25.9921,26.9583,24.9286,27.9578,24.9286,32.9583Z" fill="#fcea2b"/>
    <path d="M22.9882,39.9583c-1.0918-4.1-1.6553-8.4766-1.9961-10.25-.6426-3.3394,5-12.75,5-12.75h2c3,0,5-2,11-2a.8313.8313,0,0,0,.9414-.5483L28.9491,11.5423a25.4338,25.4338,0,0,0-3.957.416,11.464,11.464,0,0,0-4,2s-7,11-7,15v13" fill="#fcea2b"/>
    <path d="M48.9,38.9593c.9219-3.7,1.6182-7.6348,2.0918-10.001.667-3.3345-5-12-5-12a3.4914,3.4914,0,0,0-2-1c-3,0-4-2-6-3a53.8435,53.8435,0,0,0-8-1,.9794.9794,0,0,1-1-1s.041-1.0835,1.041-1.0835c2.58,0,7.2276.0835,10.959.0835a32.8785,32.8785,0,0,1,8,2,11.0667,11.0667,0,0,1,2,2s7,11,7,15v13" fill="#fcea2b"/>
  </g>
  <g id="hair">
    <path d="M45.493,27.45c-1.9017,0-4.6484-7.4922-6.239-6.916-3.9214,1.4205-10.8788,5.6591-13.2619,6.617-1.6562.6658-.3539,13.4249-.3539,13.4249-2.7372,0-5.08-5.5828-3.8667-12.4769,1.5823-8.9916,2.0123-11.0515,13.3523-12.44,12.5681-1.5393,15.4053,5.3756,15.4079,12.4768.0025,7-.54,12.44-4.54,12.44C47.0506,40.0237,47.4091,27.45,45.493,27.45Z" fill="#f1b31c"/>
  </g>
  <g id="line">
    <path d="M48.578,39.5384a2.9,2.9,0,0,1-2.5859,1.42" fill="none" stroke="#000" stroke-linecap="round" stroke-linejoin="round" stroke-width="2"/>
    <path d="M25.9921,40.9583A3.5531,3.5531,0,0,1,22.68,39.0208" fill="none" stroke="#000" stroke-linecap="round" stroke-linejoin="round" stroke-width="2"/>
    <path d="M41.8651,31.9583a2,2,0,1,1-2-2,2,2,0,0,1,2,2"/>
    <path d="M33.8651,31.9583a2,2,0,1,1-2-2,2,2,0,0,1,2,2"/>
    <path d="M24.9286,32.9583c0,9,4.9365,14,11,14,5.9365,0,11.0635-5,11.0635-14a12.1371,12.1371,0,0,0-1-5.0005c-3-2.9995-7-8-7-8-4,3-7,6-13,7.0005C25.9921,26.9583,24.9286,27.9578,24.9286,32.9583Z" fill="none" stroke="#000" stroke-linejoin="round" stroke-width="2"/>
    <path d="M38.9921,39.4583c-1,2-5,2-6,0" fill="none" stroke="#000" stroke-linecap="round" stroke-linejoin="round" stroke-width="2"/>
    <path d="M48.7743,39.4593c.9844-3.8408,1.7237-8.0274,2.2178-10.501.667-3.3345-5-12-5-12a3.4914,3.4914,0,0,0-2-1c-3,0-4-2-6-3a52.19,52.19,0,0,0-7.5547-.9932,1.3266,1.3266,0,0,1-1.4033-1.3242s-.042-1.4785,2.0791-1.4453a49.99,49.99,0,0,1,9.8789.7627c.98.1963,6.0244,1.0508,8,2a11.0667,11.0667,0,0,1,2,2s7,11,7,15V42.9261" fill="none" stroke="#000" stroke-linecap="round" stroke-linejoin="round" stroke-width="2"/>
    <path d="M39.9335,14.41a.8313.8313,0,0,1-.9414.5483c-6,0-8,2-11,2h-2s-5.6426,9.4106-5,12.75c.3125,1.625.8125,5.4375,1.7344,9.2188" fill="none" stroke="#000" stroke-linecap="round" stroke-linejoin="round" stroke-width="2"/>
    <path d="M13.9921,41.9583v-13c0-4,7-15,7-15a11.464,11.464,0,0,1,4-2,13.3688,13.3688,0,0,1,4.7363-.187" fill="none" stroke="#000" stroke-linecap="round" stroke-linejoin="round" stroke-width="2"/>
    <polyline points="22.492 39.926 11.992 42.958 15.992 59.958" fill="none" stroke="#000" stroke-linecap="round" stroke-linejoin="round" stroke-width="2"/>
    <polyline points="48.578 39.538 59.992 43.958 55.992 59.958" fill="none" stroke="#000" stroke-linecap="round" stroke-linejoin="round" stroke-width="2"/>
  </g>
</svg>

<svg version="1.1" id="emoji" xmlns="http://www.w3.org/2000/svg" x="0" y="0" viewBox="0 0 72 72" enable-background="new 0 0 72 72" xml:space="preserve">
  <g id="grid">
    <path fill="#B3B3B3" d="M68,4v64H4V4H68 M72,0H0v72h72V0z"/>
    <path fill="none" stroke="#00A5FF" stroke-width="0.1" stroke-miterlimit="10" d="M12.923,10.9583h46.1539 c1.0621,0,1.9231,0.861,1.9231,1.9231v0v46.1538c0,1.0621-0.861,1.9231-1.9231,1.9231H12.9231 c-1.0621,0-1.9231-0.861-1.9231-1.9231l0,0V12.8813C11,11.8193,11.861,10.9583,12.923,10.9583L12.923,10.9583z"/>
    <path fill="none" stroke="#00A5FF" stroke-width="0.1" stroke-miterlimit="10" d="M18.2537,4h35.4926C54.991,4,56,5.009,56,6.2537 v59.4926C56,66.991,54.991,68,53.7463,68H18.2537C17.009,68,16,66.991,16,65.7463V6.2537C16,5.009,17.009,4,18.2537,4z"/>
    <path fill="none" stroke="#00A5FF" stroke-width="0.1" stroke-miterlimit="10" d="M68,18.2537v35.4926 C68,54.991,66.991,56,65.7463,56H6.2537C5.009,56,4,54.991,4,53.7463V18.2537C4,17.009,5.009,16,6.2537,16h59.4926 C66.991,16,68,17.009,68,18.2537z"/>
    <circle fill="none" stroke="#00A5FF" stroke-width="0.1" stroke-miterlimit="10" cx="36" cy="36" r="29"/>
  </g>
  <g id="color">
    <path fill="#92D3F5" d="M56.5,60.9678l4-17l-10.9375-4.375l-0.1543-0.624C47,42,46.6543,40.3135,45.0742,41.3662 C38.417,49.9688,31.25,47.5,26,41.416c-1.8174-1.3633-1.6562,0.584-2.5039-1.4482H22.5l-10,3l4,18"/>
  </g>
  <g id="hair">
    <path fill="#F1B31C" d="M26,41c-4,0-4-6-4-13s4-14,14-14s14,7,14,14s0,13-4,13"/>
  </g>
  <g id="skin">
    <path fill="#FCEA2B" d="M24.9365,33c0,9,4.9365,14,11,14C41.873,47,47,42,47,33c0-3-1-5.0005-1-5.0005c-3-2.9995-7-8-7-8 c-4,3-7,6-13,7.0005C26,27,24.9365,27.9995,24.9365,33z"/>
    <path fill="#FCEA2B" d="M22.9961,40C21.9043,35.9004,21.3408,31.5234,21,29.75C20.3574,26.4106,26,17,26,17s1.25,0,2,0 c3,0,5-2,11-2c0.2891,0,0.7754,0,0.9414-0.5483L28.957,11.584C27.5664,11.6353,26.1973,11.7603,25,12c-1.9609,0.3921-4,2-4,2 s-7,11-7,15c0,3,0,13,0,13"/>
    <path fill="#FCEA2B" d="M48.9082,39.001C49.8301,35.3008,50.5264,31.3662,51,29c0.667-3.3345-5-12-5-12s-1-1-2-1c-3,0-4-2-6-3 c0,0-5-1-8-1c-1,0-1-1-1-1s0.041-1.0835,1.041-1.0835C32.6211,9.9165,37.2686,10,41,10c1,0,6.0244,1.0508,8,2 c0.6377,0.3062,2,2,2,2s7,11,7,15c0,3.25,0,13,0,13"/>
  </g>
  <g id="skin-shadow"/>
  <g id="line">
    <path fill="none" stroke="#000000" stroke-width="2" stroke-linecap="round" stroke-linejoin="round" d="M48.5859,39.5801 C48,40.4844,47.1719,41,46,41"/>
    <path fill="none" stroke="#000000" stroke-width="2" stroke-linecap="round" stroke-linejoin="round" d="M26,41 c-1.4043,0-2.7207-0.6748-3.3125-1.9375"/>
    <path d="M41.873,32c0,1.1045-0.8955,2-2,2c-1.1044,0-2-0.8955-2-2s0.8956-2,2-2C40.9775,30,41.873,30.8955,41.873,32"/>
    <path d="M33.873,32c0,1.1045-0.8955,2-2,2c-1.1044,0-2-0.8955-2-2s0.8956-2,2-2C32.9775,30,33.873,30.8955,33.873,32"/>
    <path fill="none" stroke="#000000" stroke-width="2" stroke-linejoin="round" d="M24.9365,33c0,9,4.9365,14,11,14 C41.873,47,47,42,47,33c0-3-1-5.0005-1-5.0005c-3-2.9995-7-8-7-8c-4,3-7,6-13,7.0005C26,27,24.9365,27.9995,24.9365,33z"/>
    <path fill="none" stroke="#000000" stroke-width="2" stroke-linecap="round" stroke-linejoin="round" d="M39,39.5c-1,2-5,2-6,0"/>
    <path fill="none" stroke="#000000" stroke-width="2" stroke-linecap="round" stroke-linejoin="round" d="M48.7822,39.501 C49.7666,35.6602,50.5059,31.4736,51,29c0.667-3.3345-5-12-5-12s-1-1-2-1c-3,0-4-2-6-3c0,0-4.5156-0.9351-7.5547-0.9932 c-1.414-0.0268-1.4033-1.3242-1.4033-1.3242S29,9.2041,31.1211,9.2373C34.3086,9.2871,37.25,9.25,41,10 c0.9805,0.1963,6.0244,1.0508,8,2c0.6377,0.3062,2,2,2,2s7,11,7,15c0,3.25,0,13.9678,0,13.9678"/>
    <path fill="none" stroke="#000000" stroke-width="2" stroke-linecap="round" stroke-linejoin="round" d="M39.9414,14.4517 C39.7754,15,39.2891,15,39,15c-6,0-8,2-11,2c-0.75,0-2,0-2,0s-5.6426,9.4106-5,12.75c0.3125,1.625,0.8125,5.4375,1.7344,9.2188"/>
    <path fill="none" stroke="#000000" stroke-width="2" stroke-linecap="round" stroke-linejoin="round" d="M14,42c0,0,0-10,0-13 c0-4,7-15,7-15s2.0391-1.6079,4-2c1.1973-0.2397,3.25-0.5,4.7363-0.187"/>
    <path fill="none" stroke="#000000" stroke-width="2" stroke-linecap="round" stroke-linejoin="round" d="M16,61"/>
    <polyline fill="none" stroke="#000000" stroke-width="2" stroke-linecap="round" stroke-linejoin="round" points="22.5,39.9678 12,43 16,60"/>
    <polyline fill="none" stroke="#000000" stroke-width="2" stroke-linecap="round" stroke-linejoin="round" points="48.5859,39.5801 60,44 56,60"/>
  </g>
</svg>
